X:27
T:Mouse in the Cupboard
S:Bernie Waugh
R:Jig
M:6/8
L:1/8
K:G
|:A|\
"G"~B3 "C"AGE|"G"DGG "D"FGA|"G"~B3 "C"cBc|"D"def "G"g2d/c/|
"G"~B3 "C"AGE|"G"DGG "D"FGA|"G"Bcd "C"cAF|"D"AGF "G"G2:|
|:A|\
"Bm"~B3 "C"cBc|"D"def "Em"g2d|"C"def ~g3|"A"abg fed|
"G"dgg bgg|"A"a2g "D"fed|"G"Bcd "C"cAF|"D"~G3 "G"G2:|

